X: 150
T: Da qiuqian
%%abc-version 2.0
%%abcx-abcm2ps-target-version 5.9.1 (29 Sep 2008)
%%abc-creator hum2abc beta
%%abcx-conversion-date 2013/10/02 07:52:29
%%abc-edited-by Helmut Schaffrath
%%humdrum-veritas 2537430275
%%humdrum-veritas-data 1597075711
%%continueall 1
%%barnumbers 0
L: 1/8
M: 2/4
K: Bb
d'2d' c' [I:setbarnb 1]| 
d'2d'2 | 
d' f' d' d'/ c'/ | 
d' d'/ c'/b2 | 
d'/ f'/ g b3/ c'/ | 
d' d'/ d'< c' d'/ | 
c' b g f | 
d4 | 
f> gb2 | 
c' a g f | 
d f f f/ c/ | 
d4 | 
b> b g/ b/ g/ b/ | 
d fd2 | 
c'> bc'2 | 
b> c' d' f' | 
d' c' b d' | 
c' bg2 | 
b> g f d | 
f4 |]  



